X:224
T:Dragoon's March. (p)1679.PLFD.224
M:4/4
L:1/8
Q:1/2=90
S:Playford, Dancing Master,6th Ed.,1679
O:England
H:1679.
Z:Chris Partington.
K:G
B2Bc dcde|d2efg4|f2ede2dc|B3AG2GA|
B2Bc dcde|d2efg4|f2ede2^c2|d8:|
|:A2FG AGAB|A2Bcd4|B2ABc2d2|B4A2FG|
A2FG AGAB|A2Bcd2ed|c2BAA3G|G8:|
